_site/images/features/icons/cloud-data.svg

<svg height="34" viewBox="0 0 31 34" width="31" xmlns="http://www.w3.org/2000/svg"><path d="m29.3636364 27.0454545h-9.5509091c-.467318-1.312579-1.5001483-2.3454092-2.8127273-2.8127272v-4.9145455h4.8990909c3.3868762.1112816 6.322338-2.326765 6.8346532-5.6765183.5123152-3.3497532-1.5602485-6.55373311-4.8255623-7.45984532-1.6977729-3.7618283-5.6774738-5.94875959-9.763194-5.36508527-4.0857202.58367431-7.29389223 3.79744458-7.87044235 7.88417618-2.60071807.72930139-4.26482452 3.26535831-3.89866163 5.94146371.36616288 2.6761053 2.65035207 4.6719297 5.35138891 4.675809h6.18181817v4.9145455c-1.312579.467318-2.3454093 1.5001482-2.8127273 2.8127272h-9.55090905c-.85353098 0-1.54545455.6919236-1.54545455 1.5454546s.69192357 1.5454545 1.54545455 1.5454545h9.55090905c.6655115 1.8336099 2.4075331 3.0545549 4.3581819 3.0545549 1.9506487 0 3.6926703-1.220945 4.3581818-3.0545549h9.5509091c.8535309 0 1.5454545-.6919235 1.5454545-1.5454545s-.6919236-1.5454546-1.5454545-1.5454546zm-21.63636367-10.8181818c-1.28029647 0-2.31818182-1.0378853-2.31818182-2.3181818s1.03788535-2.3181818 2.31818182-2.3181818c.85353097 0 1.54545454-.6919236 1.54545454-1.5454546-.0083513-3.03078096 2.18178603-5.62064963 5.17185843-6.11579641 2.9900724-.49514677 5.8981532 1.25047268 6.8672325 4.12216009.1799999.54112347.6433697.93914627 1.2054545 1.03545455 1.7278738.28814254 2.9914215 1.78737797 2.9827273 3.53909087-.0084658 1.98521-1.6156991 3.5924433-3.6009091 3.6009091zm7.72727277 13.9090909c-.853531 0-1.5454546-.6919235-1.5454546-1.5454545s.6919236-1.5454546 1.5454546-1.5454546c.8535309 0 1.5454545.6919236 1.5454545 1.5454546s-.6919236 1.5454545-1.5454545 1.5454545z" fill="#0b7a76"/></svg>

<?xml version="1.0" encoding="UTF-8"?>
<svg width="31px" height="34px" viewBox="0 0 31 34" version="1.1" xmlns="http://www.w3.org/2000/svg" xmlns:xlink="http://www.w3.org/1999/xlink">
    <!-- Generator: Sketch 52.6 (67491) - http://www.bohemiancoding.com/sketch -->
    <title>cloud-data-connection</title>
    <desc>Created with Sketch.</desc>
    <g id="Landing-page" stroke="none" stroke-width="1" fill="none" fill-rule="evenodd">
        <g id="1.3--Features" transform="translate(-573.000000, -2639.000000)" fill="#0B7A76" fill-rule="nonzero">
            <g id="Group-5" transform="translate(173.000000, 2637.000000)">
                <g id="cloud-data-connection" transform="translate(400.000000, 2.000000)">
                    <path d="M29.3636364,27.0454545 L19.8127273,27.0454545 C19.3454093,25.7328755 18.312579,24.7000453 17,24.2327273 L17,19.3181818 L21.8990909,19.3181818 C25.2859671,19.4294634 28.2214289,16.9914168 28.7337441,13.6416635 C29.2460593,10.2919103 27.1734956,7.08793039 23.9081818,6.18181818 C22.2104089,2.41998988 18.230708,0.233058592 14.1449878,0.816732906 C10.0592676,1.40040722 6.85109557,4.61417749 6.27454545,8.70090909 C3.67382738,9.43021048 2.00972093,11.9662674 2.37588382,14.6423728 C2.7420467,17.3184781 5.02623589,19.3143025 7.72727273,19.3181818 L13.9090909,19.3181818 L13.9090909,24.2327273 C12.5965119,24.7000453 11.5636816,25.7328755 11.0963636,27.0454545 L1.54545455,27.0454545 C0.691923568,27.0454545 0,27.7373781 0,28.5909091 C0,29.4444401 0.691923568,30.1363636 1.54545455,30.1363636 L11.0963636,30.1363636 C11.7618751,31.9699735 13.5038967,33.1909185 15.4545455,33.1909185 C17.4051942,33.1909185 19.1472158,31.9699735 19.8127273,30.1363636 L29.3636364,30.1363636 C30.2171673,30.1363636 30.9090909,29.4444401 30.9090909,28.5909091 C30.9090909,27.7373781 30.2171673,27.0454545 29.3636364,27.0454545 Z M7.72727273,16.2272727 C6.44697626,16.2272727 5.40909091,15.1893874 5.40909091,13.9090909 C5.40909091,12.6287944 6.44697626,11.5909091 7.72727273,11.5909091 C8.5808037,11.5909091 9.27272727,10.8989855 9.27272727,10.0454545 C9.26437597,7.01467354 11.4545133,4.42480487 14.4445857,3.92965809 C17.4346581,3.43451132 20.3427389,5.18013077 21.3118182,8.05181818 C21.4918181,8.59294165 21.9551879,8.99096445 22.5172727,9.08727273 C24.2451465,9.37541527 25.5086942,10.8746507 25.5,12.6263636 C25.4915342,14.6115736 23.8843009,16.2188069 21.8990909,16.2272727 L7.72727273,16.2272727 Z M15.4545455,30.1363636 C14.6010145,30.1363636 13.9090909,29.4444401 13.9090909,28.5909091 C13.9090909,27.7373781 14.6010145,27.0454545 15.4545455,27.0454545 C16.3080764,27.0454545 17,27.7373781 17,28.5909091 C17,29.4444401 16.3080764,30.1363636 15.4545455,30.1363636 Z" id="Shape"></path>
                </g>
            </g>
        </g>
    </g>
</svg>
